X:15019
T:Oscar Woods Jig
T:Tiger Smith's Jig
R:Jig
C:Trad. via Oscar Woods
O:England, Northumberland
Z:Paul Hardy's Session Tunebook 2015 (see www.paulhardy.net). Creative Commons cc by-nc-sa licenced.
M:6/8
L:1/8
Q:3/8=100
K:G
"G"BAG BAG|BcB ded|GAG BAG|"D7"A2A A3|
"G"BAG BAG|BcB ded|d2 g dBG|"D7"ABA "G"G3:|
|:"G"B2 d dcB|"C"c2 e edc|"G"B2 d dBG|"D7"c2A A3|
"G"B2 d dcB|"C"c2 e edc|"G"d2 g dBG|"D7"ABA "G"G3:|

